svg/SJJB-OpenStreetMapIcons/poi/tower_communications.svg

<svg xmlns="http://www.w3.org/2000/svg" viewBox="0 0 580 580" xmlns:xlink="http://www.w3.org/1999/xlink"><path d="m66.28 1.768c-41.34 0-64.57 21.371-64.57 65.04v450.12c0 40.844 20.894 62.23 62.19 62.23h452.02c41.31 0 62.23-20.316 62.23-62.23v-450.12c0-42.601-20.922-65.04-63.52-65.04-.003 0-448.49-.143-448.35 0z" fill="#111" stroke="#eee" stroke-width="3.408"/><g stroke="#fff" stroke-linecap="round"><path d="M358.45099 388.88488A11.516535 11.516535 0 1 1 358.45208 388.75969" transform="matrix(2.12302 0 0 1.76211-435.42-539.86)" fill="#fff" stroke-width="1.25"/><g fill="none" fill-rule="evenodd" fill-opacity=".75" stroke-width="19.809"><path d="m300.54 162.6c0 .307 0 .613 0 .92 0 24.333-16.333 236.26-120.43 375.22"/><path d="m300.25 162.14c0 .307 0 .613 0 .92 0 24.333 16.333 236.26 120.43 375.22"/></g></g><path d="M659.80826 385.01245A377.16653 377.16653 0 0 1 621.99133 977.71708" transform="matrix(.41941 0 0 .37606 150.19-103.88)" fill="none" stroke="#fff" stroke-linecap="round" stroke-width="12.499" id="0"/><path d="M559.42058 478.0061A240.40767 240.40767 0 0 1 534.50785 872.37959" transform="matrix(.41941 0 0 .37606 149.66-103.51)" fill="none" display="block" stroke="#fff" stroke-linecap="round" stroke-width="12.499" id="1"/><path d="M485.29511 571.71763A120.92362 120.92362 0 0 1 472.76415 770.08514" transform="matrix(.42017 0 0 .34874 149.39-87.85)" fill="none" display="block" stroke="#fff" stroke-linecap="round" stroke-width="12.499" id="2"/><g transform="matrix(-1 0 0 1 605.91.216)"><use xlink:href="#0"/><use xlink:href="#1"/></g><use transform="matrix(-1 0 0 1 605.92.2)" xlink:href="#2"/><g fill="none" fill-rule="evenodd" stroke="#fff" stroke-linecap="round"><g stroke-width="12.53"><path d="m325.85 314.64l-68.5 63.41"/><path d="m275.38 314.64l68.5 63.41"/></g><g stroke-width="15.422"><path d="m270.87 377.87l107.23 99.26"/><path d="m330.01 377.87l-107.23 99.26"/></g></g></svg>

<?xml version="1.0" encoding="UTF-8" standalone="no"?>
<!-- Created with Inkscape (http://www.inkscape.org/) -->
<svg
   xmlns:dc="http://purl.org/dc/elements/1.1/"
   xmlns:cc="http://creativecommons.org/ns#"
   xmlns:rdf="http://www.w3.org/1999/02/22-rdf-syntax-ns#"
   xmlns:svg="http://www.w3.org/2000/svg"
   xmlns="http://www.w3.org/2000/svg"
   xmlns:sodipodi="http://sodipodi.sourceforge.net/DTD/sodipodi-0.dtd"
   xmlns:inkscape="http://www.inkscape.org/namespaces/inkscape"
   version="1.0"
   width="580"
   height="580"
   id="svg2"
   sodipodi:version="0.32"
   inkscape:version="0.46"
   sodipodi:docname="tower_communications.svg"
   inkscape:output_extension="org.inkscape.output.svg.inkscape">
  <metadata
     id="metadata10">
    <rdf:RDF>
      <cc:Work
         rdf:about="">
        <dc:format>image/svg+xml</dc:format>
        <dc:type
           rdf:resource="http://purl.org/dc/dcmitype/StillImage" />
			  <cc:license
           rdf:resource="http://web.resource.org/cc/PublicDomain" />
        <dc:language>en</dc:language>
      </cc:Work>
    </rdf:RDF>
  </metadata>
  <sodipodi:namedview
     inkscape:window-height="711"
     inkscape:window-width="1014"
     inkscape:pageshadow="2"
     inkscape:pageopacity="0.0"
     guidetolerance="10.0"
     gridtolerance="10.0"
     objecttolerance="10.0"
     borderopacity="1.0"
     bordercolor="#666666"
     pagecolor="#ffffff"
     id="base"
     showgrid="false"
     inkscape:zoom="0.70710678"
     inkscape:cx="191.9039"
     inkscape:cy="259.98847"
     inkscape:window-x="1"
     inkscape:window-y="1"
     inkscape:current-layer="svg2" />
  <defs
     id="defs4">
    <inkscape:perspective
       sodipodi:type="inkscape:persp3d"
       inkscape:vp_x="0 : 290 : 1"
       inkscape:vp_y="0 : 1000 : 0"
       inkscape:vp_z="580 : 290 : 1"
       inkscape:persp3d-origin="290 : 193.33333 : 1"
       id="perspective12" />
    <style
       type="text/css"
       id="style6">
   
    .fil0 {fill:#EF7900}
   
  </style>
    <inkscape:perspective
       id="perspective6807"
       inkscape:persp3d-origin="29.116032 : 19.410688 : 1"
       inkscape:vp_z="58.232063 : 29.116032 : 1"
       inkscape:vp_y="0 : 1000 : 0"
       inkscape:vp_x="0 : 29.116032 : 1"
       sodipodi:type="inkscape:persp3d" />
    <inkscape:perspective
       id="perspective6954"
       inkscape:persp3d-origin="290 : 193.33333 : 1"
       inkscape:vp_z="580 : 290 : 1"
       inkscape:vp_y="0 : 1000 : 0"
       inkscape:vp_x="0 : 290 : 1"
       sodipodi:type="inkscape:persp3d" />
    <inkscape:perspective
       id="perspective2541"
       inkscape:persp3d-origin="240 : 160 : 1"
       inkscape:vp_z="480 : 240 : 1"
       inkscape:vp_y="0 : 1000 : 0"
       inkscape:vp_x="0 : 240 : 1"
       sodipodi:type="inkscape:persp3d" />
    <inkscape:perspective
       id="perspective2750"
       inkscape:persp3d-origin="215 : 143.33333 : 1"
       inkscape:vp_z="430 : 215 : 1"
       inkscape:vp_y="0 : 1000 : 0"
       inkscape:vp_x="0 : 215 : 1"
       sodipodi:type="inkscape:persp3d" />
    <inkscape:perspective
       id="perspective3730"
       inkscape:persp3d-origin="88.929146 : 101.19778 : 1"
       inkscape:vp_z="177.85829 : 151.79668 : 1"
       inkscape:vp_y="0 : 1000 : 0"
       inkscape:vp_x="0 : 151.79668 : 1"
       sodipodi:type="inkscape:persp3d" />
  </defs>
  <g
     id="g1327">
    <path
       d="M 66.275,1.768 C 24.94,1.768 1.704,23.139 1.704,66.804 L 1.704,516.927 C 1.704,557.771 22.598,579.156 63.896,579.156 L 515.92,579.156 C 557.227,579.156 578.149,558.84 578.149,516.927 L 578.149,66.804 C 578.149,24.203 557.227,1.768 514.627,1.768 C 514.624,1.768 66.133,1.625 66.275,1.768 z"
       style="fill:#111111;stroke:#eeeeee;stroke-width:3.40799999"
       id="path1329" />
  </g>
  <path
     d="M 358.45099,388.88488 A 11.516535,11.516535 0 1 1 358.45208,388.75969"
     id="path1061"
     sodipodi:cx="346.93561"
     sodipodi:cy="388.72183"
     sodipodi:end="6.2864724"
     sodipodi:open="true"
     sodipodi:rx="11.516535"
     sodipodi:ry="11.516535"
     sodipodi:start="0.014158001"
     sodipodi:type="arc"
     style="fill:#ffffff;fill-opacity:1;fill-rule:nonzero;stroke:#ffffff;stroke-width:1.25;stroke-linecap:round;stroke-miterlimit:4;stroke-opacity:1"
     transform="matrix(2.1230164,0,0,1.7621071,-435.4189,-539.85832)" />
  <path
     d="M 300.54222,162.60258 C 300.54222,162.90911 300.54222,163.21567 300.54222,163.5222 C 300.54222,187.85531 284.20952,399.78441 180.11187,538.73738"
     id="path1686"
     sodipodi:nodetypes="ccc"
     style="fill:none;fill-opacity:0.75;fill-rule:evenodd;stroke:#ffffff;stroke-width:19.80927849;stroke-linecap:round;stroke-linejoin:miter;stroke-miterlimit:4;stroke-opacity:1" />
  <path
     d="M 300.2498,162.14279 C 300.2498,162.44933 300.2498,162.75589 300.2498,163.06242 C 300.2498,187.39547 316.5825,399.32463 420.68011,538.27769"
     id="path2308"
     sodipodi:nodetypes="ccc"
     style="fill:none;fill-opacity:0.75;fill-rule:evenodd;stroke:#ffffff;stroke-width:19.80927849;stroke-linecap:round;stroke-linejoin:miter;stroke-miterlimit:4;stroke-opacity:1" />
  <path
     d="M 659.80826,385.01245 A 377.16653,377.16653 0 0 1 621.99133,977.71708"
     id="path4190"
     sodipodi:cx="408.83701"
     sodipodi:cy="666.55823"
     sodipodi:end="7.2533709"
     sodipodi:open="true"
     sodipodi:rx="377.16653"
     sodipodi:ry="377.16653"
     sodipodi:start="5.440435"
     sodipodi:type="arc"
     style="fill:none;fill-opacity:1;fill-rule:nonzero;stroke:#ffffff;stroke-width:12.499156;stroke-linecap:round;stroke-miterlimit:4;stroke-dasharray:none;stroke-opacity:1"
     transform="matrix(0.4194127,0,0,0.376063,150.18538,-103.88221)" />
  <path
     d="M 559.42058,478.0061 A 240.40767,240.40767 0 0 1 534.50785,872.37959"
     id="path4196"
     sodipodi:cx="410.27655"
     sodipodi:cy="666.55823"
     sodipodi:end="7.3109281"
     sodipodi:open="true"
     sodipodi:rx="240.40767"
     sodipodi:ry="240.40767"
     sodipodi:start="5.3816157"
     sodipodi:type="arc"
     style="fill:none;fill-opacity:1;fill-rule:nonzero;stroke:#ffffff;stroke-width:12.499156;stroke-linecap:round;stroke-linejoin:miter;marker:none;marker-start:none;marker-mid:none;marker-end:none;stroke-miterlimit:4;stroke-dasharray:none;stroke-dashoffset:0;stroke-opacity:1;visibility:visible;display:block"
     transform="matrix(0.4194127,0,0,0.376063,149.65944,-103.51218)" />
  <path
     d="M 485.29511,571.71763 A 120.92362,120.92362 0 0 1 472.76415,770.08514"
     id="path4198"
     sodipodi:cx="410.27655"
     sodipodi:cy="666.55823"
     sodipodi:end="7.3109281"
     sodipodi:open="true"
     sodipodi:rx="120.92362"
     sodipodi:ry="120.92362"
     sodipodi:start="5.3816157"
     sodipodi:type="arc"
     style="fill:none;fill-opacity:1;fill-rule:nonzero;stroke:#ffffff;stroke-width:12.499156;stroke-linecap:round;stroke-linejoin:miter;marker:none;marker-start:none;marker-mid:none;marker-end:none;stroke-miterlimit:4;stroke-dasharray:none;stroke-dashoffset:0;stroke-opacity:1;visibility:visible;display:block"
     transform="matrix(0.4201693,0,0,0.3487427,149.38752,-87.84677)" />
  <path
     d="M 659.80826,385.01245 A 377.16653,377.16653 0 0 1 621.99133,977.71708"
     id="path4209"
     sodipodi:cx="408.83701"
     sodipodi:cy="666.55823"
     sodipodi:end="7.2533709"
     sodipodi:open="true"
     sodipodi:rx="377.16653"
     sodipodi:ry="377.16653"
     sodipodi:start="5.440435"
     sodipodi:type="arc"
     style="fill:none;fill-opacity:1;fill-rule:nonzero;stroke:#ffffff;stroke-width:12.499156;stroke-linecap:round;stroke-miterlimit:4;stroke-dasharray:none;stroke-opacity:1"
     transform="matrix(-0.4194127,0,0,0.376063,455.72073,-103.66646)" />
  <path
     d="M 559.42058,478.0061 A 240.40767,240.40767 0 0 1 534.50785,872.37959"
     id="path4210"
     sodipodi:cx="410.27655"
     sodipodi:cy="666.55823"
     sodipodi:end="7.3109281"
     sodipodi:open="true"
     sodipodi:rx="240.40767"
     sodipodi:ry="240.40767"
     sodipodi:start="5.3816157"
     sodipodi:type="arc"
     style="fill:none;fill-opacity:1;fill-rule:nonzero;stroke:#ffffff;stroke-width:12.499156;stroke-linecap:round;stroke-linejoin:miter;marker:none;marker-start:none;marker-mid:none;marker-end:none;stroke-miterlimit:4;stroke-dasharray:none;stroke-dashoffset:0;stroke-opacity:1;visibility:visible;display:block"
     transform="matrix(-0.4194127,0,0,0.376063,456.24791,-103.29644)" />
  <path
     d="M 485.29511,571.71763 A 120.92362,120.92362 0 0 1 472.76415,770.08514"
     id="path4212"
     sodipodi:cx="410.27655"
     sodipodi:cy="666.55823"
     sodipodi:end="7.3109281"
     sodipodi:open="true"
     sodipodi:rx="120.92362"
     sodipodi:ry="120.92362"
     sodipodi:start="5.3816157"
     sodipodi:type="arc"
     style="fill:none;fill-opacity:1;fill-rule:nonzero;stroke:#ffffff;stroke-width:12.499156;stroke-linecap:round;stroke-linejoin:miter;marker:none;marker-start:none;marker-mid:none;marker-end:none;stroke-miterlimit:4;stroke-dasharray:none;stroke-dashoffset:0;stroke-opacity:1;visibility:visible;display:block"
     transform="matrix(-0.4201693,0,0,0.3487427,456.52906,-87.64671)" />
  <path
     id="path3758"
     d="M 325.84839,314.64087 L 257.34445,378.05373"
     style="opacity:1;fill:none;fill-rule:evenodd;stroke:#ffffff;stroke-width:12.53017044;stroke-linecap:round;stroke-linejoin:miter;stroke-miterlimit:4;stroke-dasharray:none;stroke-opacity:1" />
  <path
     style="opacity:1;fill:none;fill-rule:evenodd;stroke:#ffffff;stroke-width:12.53017044;stroke-linecap:round;stroke-linejoin:miter;stroke-miterlimit:4;stroke-dasharray:none;stroke-opacity:1"
     d="M 275.37692,314.64087 L 343.88086,378.05373"
     id="path3768" />
  <path
     style="opacity:1;fill:none;fill-rule:evenodd;stroke:#ffffff;stroke-width:15.42174816;stroke-linecap:round;stroke-linejoin:miter;stroke-miterlimit:4;stroke-dasharray:none;stroke-opacity:1"
     d="M 270.86852,377.87329 L 378.09962,477.13518"
     id="path3770" />
  <path
     id="path3772"
     d="M 330.01303,377.87329 L 222.78193,477.13518"
     style="opacity:1;fill:none;fill-rule:evenodd;stroke:#ffffff;stroke-width:15.42174816;stroke-linecap:round;stroke-linejoin:miter;stroke-miterlimit:4;stroke-dasharray:none;stroke-opacity:1" />
</svg>
